icon/pk/heavy-metal.svg

<svg viewBox="0 0 48 48" fill="none" xmlns="http://www.w3.org/2000/svg" height="1em" width="1em">
  <path fill-rule="evenodd" clip-rule="evenodd" d="M22.2187 7.37842L33.8868 16.6216L36.1778 23.9998L25.2625 26.0852L12.5889 14.5312L15.281 9.00148L22.2187 7.37842Z" stroke="black" stroke-width="4" stroke-linejoin="round"/>
  <path d="M15.2808 9.00146L26.4862 18.6016" stroke="black" stroke-width="4" stroke-linecap="round"/>
  <path d="M25.2627 26.0852L26.4866 18.1324L33.887 16.6216" stroke="black" stroke-width="4" stroke-linecap="round" stroke-linejoin="round"/>
  <path d="M24.993 31.0228L27.2792 38.1032L15.601 40.3785L4 29.014L6.57052 22.6253L12.0285 21.3535" stroke="black" stroke-width="4" stroke-linecap="round" stroke-linejoin="round"/>
  <path d="M6.57031 22.625L17.2837 32.7577" stroke="black" stroke-width="4" stroke-linecap="round"/>
  <path d="M15.6011 39.8648L17.4865 32.1324L24.9908 31.0435" stroke="black" stroke-width="4" stroke-linecap="round" stroke-linejoin="round"/>
  <path fill-rule="evenodd" clip-rule="evenodd" d="M34.8868 29.6077L34 36.7999L43.236 34.9985L41.2813 28.1875L34.8868 29.6077Z" stroke="black" stroke-width="4" stroke-linejoin="round"/>
</svg>

<svg width="48" height="48" fill="none" xmlns="http://www.w3.org/2000/svg"><path clip-rule="evenodd" d="m22.219 7.378 11.668 9.244L36.177 24l-10.915 2.085L12.59 14.531l2.692-5.53 6.938-1.623Z" stroke="#000" stroke-width="4" stroke-linejoin="round"/><path d="m15.28 9.001 11.206 9.6" stroke="#000" stroke-width="4" stroke-linecap="round"/><path d="m25.263 26.085 1.224-7.953 7.4-1.51M24.993 31.023l2.286 7.08-11.678 2.276L4 29.014l2.57-6.389 5.458-1.271" stroke="#000" stroke-width="4" stroke-linecap="round" stroke-linejoin="round"/><path d="m6.57 22.625 10.714 10.133" stroke="#000" stroke-width="4" stroke-linecap="round"/><path d="m15.601 39.865 1.885-7.733 7.505-1.088" stroke="#000" stroke-width="4" stroke-linecap="round" stroke-linejoin="round"/><path clip-rule="evenodd" d="M34.887 29.608 34 36.8l9.236-1.801-1.955-6.812-6.394 1.42Z" stroke="#000" stroke-width="4" stroke-linejoin="round"/></svg>
